X: 25746
T: Mary O'Neill's
R: reel
M: 4/4
K: Gmajor
|:B3 e dBGA|B2 Ac BG ~G2|B2 Be dBGA|1 (3Bcd AB ~G3 z:|2 B2 AB ~G3 z||
|:ggdc Bcde|d2 ag fdaf|ggdc Bcde|dBcA BG G2:|

